X: 12707
T: Father Francis Cameron's
R: reel
M: 4/4
K: Amajor
|:E|"A"A2 (cA) "D"FDDF|"A"EA,CE "D"F2 (DF)|"A"EAcA "F#m"e2 (cA)|"Bm"BEGB "E7"d2 (cB)|
"A"A2 (cA) "D"FDDF|"A"EA,CE "D"F2 (DF)|"A"EAce "Bm" dcdf|"E7"ecdB "A"A2 A:|
|:f|"A"e2 (cA) "A7"eAce|"D"f2 (dB) fBdf|"A"eagb "F#m" aecA|"Bm"BEGB "E7"d2 cd|
"A"e2 (cA) "A7"eAce|"D"f2 dB fBdf|"A"eagb "Bm" aecA|"E7"BEGB "A"A2 A:|

